rospo-newyear-light/symbolic/status/weather-showers-symbolic.svg

<svg xmlns="http://www.w3.org/2000/svg" width="16" height="16" version="1.1">
 <path style="fill:#5c616c" d="M 8,0 C 5.93,0 4.17,1.27 3.41,3.06 1.48,3.35 0,4.99 0,7 0,9.21 1.79,11 4,11 H 12.5 C 14.43,11 16,9.43 16,7.5 16,5.7 14.65,4.23 12.91,4.03 12.45,1.74 10.43,0 8,0 Z"/>
 <path style="fill:#5c616c" d="M 2.9766,11.994 A 0.5,0.5 0 0 0 2.5527,12.277 L 1.5527,14.277 A 0.5,0.5 0 1 0 2.4473,14.723 L 3.4473,12.723 A 0.5,0.5 0 0 0 2.9766,11.994 Z M 5.4766,11.994 A 0.5,0.5 0 0 0 5.0527,12.277 L 4.0527,14.277 A 0.5,0.5 0 1 0 4.9473,14.723 L 5.9473,12.723 A 0.5,0.5 0 0 0 5.4766,11.994 Z M 7.9766,11.994 A 0.5,0.5 0 0 0 7.5527,12.277 L 6.5527,14.277 A 0.5,0.5 0 1 0 7.4473,14.723 L 8.4473,12.723 A 0.5,0.5 0 0 0 7.9766,11.994 Z M 10.477,11.994 A 0.5,0.5 0 0 0 10.053,12.277 L 9.0527,14.277 A 0.5,0.5 0 1 0 9.9473,14.723 L 10.947,12.723 A 0.5,0.5 0 0 0 10.477,11.994 Z M 12.977,11.994 A 0.5,0.5 0 0 0 12.553,12.277 L 11.553,14.277 A 0.5,0.5 0 1 0 12.447,14.723 L 13.447,12.723 A 0.5,0.5 0 0 0 12.977,11.994 Z"/>
</svg>

<svg height="16" width="16" xmlns="http://www.w3.org/2000/svg"><path d="m8 0c-2.07 0-3.83 1.27-4.59 3.06-1.93.29-3.41 1.93-3.41 3.94 0 2.21 1.79 4 4 4h8.5c1.93 0 3.5-1.57 3.5-3.5 0-1.8-1.35-3.27-3.09-3.47-.46-2.29-2.48-4.03-4.91-4.03z" fill="#5c616c"/><path d="m2.9766 11.994a.5.5 0 0 0 -.4239.283l-1 2a .5.5 0 1 0  .8946.446l1-2a .5.5 0 0 0 -.4707-.729zm2.5 0a .5.5 0 0 0 -.4239.283l-1 2a .5.5 0 1 0  .8946.446l1-2a .5.5 0 0 0 -.4707-.729zm2.5 0a .5.5 0 0 0 -.4239.283l-1 2a .5.5 0 1 0  .8946.446l1-2a .5.5 0 0 0 -.4707-.729zm2.5004 0a .5.5 0 0 0 -.424.283l-1.0003 2a .5.5 0 1 0  .8946.446l.9997-2a .5.5 0 0 0 -.47-.729zm2.5 0a .5.5 0 0 0 -.424.283l-1 2a .5.5 0 1 0  .894.446l1-2a .5.5 0 0 0 -.47-.729z" fill="#5c616c"/></svg>
